icon/lg/open-zeppelin.svg

<?xml version="1.0" encoding="UTF-8"?>
<svg viewBox="0 0 512 80" version="1.1" xmlns="http://www.w3.org/2000/svg" xmlns:xlink="http://www.w3.org/1999/xlink" preserveAspectRatio="xMidYMid" height="1em" width="1em">
  <g>
    <g>
      <path d="M71.9467191,79.7449034 L71.9467191,58.9869035 L49.3413194,58.9869035 C43.1938864,58.9869035 37.4994627,62.2139743 34.3509334,67.4825142 L27.0223684,79.7449034 L71.9467191,79.7449034 Z" fill="#63D2F9"/>
      <polygon fill="#4E5EE4" points="-6.51233307e-16 -2.2017888e-15 -6.51233307e-16 20.7579998 59.5406738 20.7579998 71.946759 -2.2017888e-15"/>
      <path d="M28.495536,32.4415868 L0.0655576857,79.7449433 L24.2872287,79.7449433 L58.2844095,23.1531803 L44.9090947,23.1531803 C38.1814306,23.1531803 31.9486498,26.6803104 28.495536,32.4415868 Z" fill="#63B0F9"/>
    </g>
    <path d="M123.479084,59.8265069 C111.299373,59.8265069 102.336944,50.9733029 102.336944,39.0928745 C102.336944,27.3266806 111.356825,18.3592418 123.536535,18.3592418 C135.716246,18.3592418 144.736126,27.4409155 144.736126,39.0928745 C144.736126,50.8590678 135.658795,59.8265069 123.479084,59.8265069 Z M123.536535,52.5725913 C131.235032,52.5725913 136.750372,46.8608471 136.750372,39.0928745 C136.750372,31.4391366 131.235032,25.6131573 123.536535,25.6131573 C115.780587,25.6131573 110.265247,31.4391366 110.265247,39.0928745 C110.265247,46.8608471 115.780587,52.5725913 123.536535,52.5725913 Z M152.892112,72.2209928 L152.892112,29.040204 L160.245899,29.040204 L160.245899,32.8670728 L160.648059,32.8670728 C161.45238,31.6104891 164.21005,28.2976772 169.725391,28.2976772 C178.170756,28.2976772 183.973354,34.5805962 183.973354,43.9478572 C183.973354,53.3151183 178.228208,59.8265069 169.955197,59.8265069 C164.612211,59.8265069 161.739637,56.8563998 160.762963,55.1999936 L160.360802,55.1999936 L160.360802,72.2209928 L152.892112,72.2209928 Z M168.289104,53.0866482 C173.115027,53.0866482 176.389761,49.3740144 176.389761,44.0620923 C176.389761,38.5788172 173.115027,35.0375357 168.231653,35.0375357 C163.290827,35.0375357 160.188448,38.9786395 160.188448,44.0620923 C160.188448,49.6596017 163.635536,53.0866482 168.289104,53.0866482 Z M205.343177,59.8265069 C196.4382,59.8265069 190.118538,53.2008835 190.118538,44.2334442 C190.118538,34.7519484 196.495651,28.2976772 205.343177,28.2976772 C215.052475,28.2976772 220.338009,35.4373579 220.338009,43.8907397 L220.338009,46.2325548 L197.357423,46.2325548 C197.587229,50.8019506 200.74706,53.8862924 205.572983,53.8862924 C209.249877,53.8862924 212.064998,52.1727693 213.099125,49.7167192 L220.050752,49.7167192 C218.557014,55.8282859 213.156576,59.8265069 205.343177,59.8265069 Z M197.472326,40.9777502 L213.214028,40.9777502 C212.869319,36.9224113 209.709488,34.2378915 205.343177,34.2378915 C201.14922,34.2378915 197.931938,37.2079986 197.472326,40.9777502 Z M228.379092,59.0839802 L228.379092,29.040204 L235.503074,29.040204 L235.503074,32.6957206 L235.905234,32.6957206 C237.111715,30.4681402 240.099191,28.2976772 244.408051,28.2976772 C251.187324,28.2976772 255.32383,33.038425 255.32383,39.435579 L255.32383,59.0839802 L247.855139,59.0839802 L247.855139,41.3775721 C247.855139,37.7220558 245.499629,35.2660054 242.052541,35.2660054 C238.433099,35.2660054 235.847783,38.1218778 235.847783,41.8916291 L235.847783,59.0839802 L228.379092,59.0839802 Z M262.732946,59.0839802 L262.732946,52.287004 L283.645279,26.0700969 L283.645279,25.6702747 L263.479815,25.6702747 L263.479815,19.1017685 L293.182223,19.1017685 L293.182223,25.8416271 L272.269889,52.0585343 L272.269889,52.5154741 L293.297126,52.5154741 L293.297126,59.0839802 L262.732946,59.0839802 Z M313.517919,59.8265069 C304.612942,59.8265069 298.29328,53.2008835 298.29328,44.2334442 C298.29328,34.7519484 304.670395,28.2976772 313.517919,28.2976772 C323.227216,28.2976772 328.512751,35.4373579 328.512751,43.8907397 L328.512751,46.2325548 L305.532164,46.2325548 C305.761972,50.8019506 308.921802,53.8862924 313.747724,53.8862924 C317.424619,53.8862924 320.239741,52.1727693 321.273866,49.7167192 L328.225493,49.7167192 C326.731756,55.8282859 321.331319,59.8265069 313.517919,59.8265069 Z M305.647067,40.9777502 L321.388768,40.9777502 C321.044061,36.9224113 317.884231,34.2378915 313.517919,34.2378915 C309.323962,34.2378915 306.106679,37.2079986 305.647067,40.9777502 Z M336.553834,72.2209928 L336.553834,29.040204 L343.907621,29.040204 L343.907621,32.8670728 L344.309781,32.8670728 C345.114103,31.6104891 347.871773,28.2976772 353.387113,28.2976772 C361.832477,28.2976772 367.635077,34.5805962 367.635077,43.9478572 C367.635077,53.3151183 361.88993,59.8265069 353.616921,59.8265069 C348.273933,59.8265069 345.401361,56.8563998 344.424686,55.1999936 L344.022523,55.1999936 L344.022523,72.2209928 L336.553834,72.2209928 Z M351.950828,53.0866482 C356.77675,53.0866482 360.051482,49.3740144 360.051482,44.0620923 C360.051482,38.5788172 356.77675,35.0375357 351.893376,35.0375357 C346.952548,35.0375357 343.850171,38.9786395 343.850171,44.0620923 C343.850171,49.6596017 347.297258,53.0866482 351.950828,53.0866482 Z M375.67616,72.2209928 L375.67616,29.040204 L383.029947,29.040204 L383.029947,32.8670728 L383.432107,32.8670728 C384.236427,31.6104891 386.994097,28.2976772 392.509439,28.2976772 C400.954804,28.2976772 406.757404,34.5805962 406.757404,43.9478572 C406.757404,53.3151183 401.012257,59.8265069 392.739244,59.8265069 C387.39626,59.8265069 384.523685,56.8563998 383.54701,55.1999936 L383.14485,55.1999936 L383.14485,72.2209928 L375.67616,72.2209928 Z M391.073152,53.0866482 C395.899074,53.0866482 399.173809,49.3740144 399.173809,44.0620923 C399.173809,38.5788172 395.899074,35.0375357 391.015702,35.0375357 C386.074875,35.0375357 382.972495,38.9786395 382.972495,44.0620923 C382.972495,49.6596017 386.419585,53.0866482 391.073152,53.0866482 Z M428.127223,59.8265069 C419.222246,59.8265069 412.902587,53.2008835 412.902587,44.2334442 C412.902587,34.7519484 419.279699,28.2976772 428.127223,28.2976772 C437.836523,28.2976772 443.122061,35.4373579 443.122061,43.8907397 L443.122061,46.2325548 L420.141471,46.2325548 C420.371276,50.8019506 423.531109,53.8862924 428.357031,53.8862924 C432.033926,53.8862924 434.849045,52.1727693 435.883173,49.7167192 L442.8348,49.7167192 C441.34106,55.8282859 435.940626,59.8265069 428.127223,59.8265069 Z M420.256377,40.9777502 L435.998076,40.9777502 C435.653365,36.9224113 432.493539,34.2378915 428.127223,34.2378915 C423.933266,34.2378915 420.715983,37.2079986 420.256377,40.9777502 Z M458.516928,59.0839802 C453.231393,59.0839802 450.243919,55.9425209 450.243919,50.6305984 L450.243919,16.2458963 L457.712608,16.2458963 L457.712608,49.9451889 C457.712608,51.6587123 458.574378,52.5725913 460.125571,52.5725913 L461.332047,52.5725913 L461.332047,59.0839802 L458.516928,59.0839802 Z M472.245706,25.0419828 C469.545486,25.0419828 467.649585,23.3855769 467.649585,20.701057 C467.649585,18.130772 469.545486,16.4172486 472.245706,16.4172486 C474.945926,16.4172486 476.84182,18.130772 476.84182,20.701057 C476.84182,23.3855769 474.945926,25.0419828 472.245706,25.0419828 Z M468.511361,59.0839802 L468.511361,29.040204 L475.98005,29.040204 L475.98005,59.0839802 L468.511361,59.0839802 Z M485.055258,59.0839802 L485.055258,29.040204 L492.179243,29.040204 L492.179243,32.6957206 L492.5814,32.6957206 C493.787883,30.4681402 496.775358,28.2976772 501.08422,28.2976772 C507.863492,28.2976772 512,33.038425 512,39.435579 L512,59.0839802 L504.531305,59.0839802 L504.531305,41.3775721 C504.531305,37.7220558 502.175798,35.2660054 498.728708,35.2660054 C495.109268,35.2660054 492.523951,38.1218778 492.523951,41.8916291 L492.523951,59.0839802 L485.055258,59.0839802 Z" fill="#282846"/>
  </g>
</svg>

<svg width="512" height="80" xmlns="http://www.w3.org/2000/svg" preserveAspectRatio="xMidYMid"><path d="M71.947 79.745V58.987H49.34a17.461 17.461 0 0 0-14.99 8.496l-7.329 12.262h44.925Z" fill="#63D2F9"/><path fill="#4E5EE4" d="M0 0v20.758h59.54L71.948 0z"/><path d="M28.496 32.442.066 79.745h24.221l33.997-56.592H44.91a19.133 19.133 0 0 0-16.413 9.289Z" fill="#63B0F9"/><path d="M123.48 59.827c-12.18 0-21.143-8.854-21.143-20.734 0-11.766 9.02-20.734 21.2-20.734s21.2 9.082 21.2 20.734c0 11.766-9.078 20.734-21.258 20.734Zm.057-7.254c7.698 0 13.213-5.712 13.213-13.48 0-7.654-5.515-13.48-13.213-13.48-7.756 0-13.272 5.826-13.272 13.48 0 7.768 5.516 13.48 13.272 13.48Zm29.355 19.648v-43.18h7.354v3.826h.402c.804-1.257 3.562-4.57 9.077-4.57 8.446 0 14.248 6.284 14.248 15.65 0 9.368-5.745 15.88-14.018 15.88-5.343 0-8.215-2.97-9.192-4.627h-.402v17.021h-7.469Zm15.397-19.134c4.826 0 8.1-3.713 8.1-9.025 0-5.483-3.274-9.024-8.157-9.024-4.941 0-8.044 3.94-8.044 9.024 0 5.598 3.448 9.025 8.101 9.025Zm37.054 6.74c-8.905 0-15.224-6.626-15.224-15.594 0-9.481 6.377-15.935 15.224-15.935 9.71 0 14.995 7.14 14.995 15.593v2.342h-22.98c.23 4.569 3.39 7.653 8.215 7.653 3.677 0 6.492-1.713 7.526-4.17h6.952c-1.494 6.112-6.894 10.11-14.708 10.11Zm-7.87-18.85h15.741c-.345-4.055-3.505-6.74-7.87-6.74-4.195 0-7.412 2.971-7.872 6.74Zm30.906 18.107V29.04h7.124v3.656h.402c1.207-2.228 4.194-4.398 8.503-4.398 6.78 0 10.916 4.74 10.916 11.138v19.648h-7.469V41.378c0-3.656-2.355-6.112-5.802-6.112-3.62 0-6.205 2.856-6.205 6.626v17.192h-7.469Zm34.354 0v-6.797l20.912-26.217v-.4H263.48v-6.568h29.702v6.74L272.27 52.059v.456h21.027v6.569h-30.564Zm50.785.743c-8.905 0-15.225-6.626-15.225-15.594 0-9.481 6.377-15.935 15.225-15.935 9.71 0 14.995 7.14 14.995 15.593v2.342h-22.98c.229 4.569 3.389 7.653 8.215 7.653 3.677 0 6.492-1.713 7.526-4.17h6.951c-1.493 6.112-6.894 10.11-14.707 10.11Zm-7.87-18.85h15.74c-.344-4.055-3.504-6.74-7.87-6.74-4.194 0-7.411 2.971-7.87 6.74Zm30.906 31.244v-43.18h7.354v3.826h.402c.804-1.257 3.562-4.57 9.077-4.57 8.445 0 14.248 6.284 14.248 15.65 0 9.368-5.745 15.88-14.018 15.88-5.343 0-8.216-2.97-9.192-4.627h-.402v17.021h-7.47Zm15.397-19.134c4.826 0 8.1-3.713 8.1-9.025 0-5.483-3.274-9.024-8.158-9.024-4.94 0-8.043 3.94-8.043 9.024 0 5.598 3.447 9.025 8.1 9.025Zm23.725 19.134v-43.18h7.354v3.826h.402c.804-1.257 3.562-4.57 9.077-4.57 8.446 0 14.248 6.284 14.248 15.65 0 9.368-5.745 15.88-14.018 15.88-5.343 0-8.215-2.97-9.192-4.627h-.402v17.021h-7.469Zm15.397-19.134c4.826 0 8.1-3.713 8.1-9.025 0-5.483-3.274-9.024-8.157-9.024-4.941 0-8.044 3.94-8.044 9.024 0 5.598 3.448 9.025 8.101 9.025Zm37.054 6.74c-8.905 0-15.224-6.626-15.224-15.594 0-9.481 6.377-15.935 15.224-15.935 9.71 0 14.995 7.14 14.995 15.593v2.342h-22.98c.23 4.569 3.39 7.653 8.215 7.653 3.677 0 6.492-1.713 7.526-4.17h6.952c-1.494 6.112-6.894 10.11-14.708 10.11Zm-7.87-18.85h15.741c-.345-4.055-3.504-6.74-7.87-6.74-4.195 0-7.412 2.971-7.872 6.74Zm38.26 18.107c-5.286 0-8.273-3.141-8.273-8.453V16.246h7.469v33.7c0 1.713.861 2.627 2.413 2.627h1.206v6.511h-2.815Zm13.729-34.042c-2.7 0-4.596-1.656-4.596-4.34 0-2.571 1.895-4.285 4.596-4.285 2.7 0 4.596 1.714 4.596 4.284 0 2.685-1.896 4.341-4.596 4.341Zm-3.735 34.042V29.04h7.469v30.044h-7.469Zm16.544 0V29.04h7.124v3.656h.402c1.207-2.228 4.194-4.398 8.503-4.398 6.78 0 10.916 4.74 10.916 11.138v19.648h-7.469V41.378c0-3.656-2.355-6.112-5.802-6.112-3.62 0-6.205 2.856-6.205 6.626v17.192h-7.469Z" fill="#282846"/></svg>
